X:1
T:Bocking, LMD
T:Bocking, LMD
T:Anonymous, 19th Century
T:Public Domain Courtesy of the Cyber Hymnal™
C:Anonymous, 19th Century
Z:Public Domain
Z:Courtesy of the Cyber Hymnal™
%%score ( 1 2 ) ( 3 4 )
L:1/8
Q:1/4=110
M:4/4
K:C
V:1 treble 
V:2 treble 
V:3 bass 
V:4 bass 
V:1
 [EG]2 | [EG]2 [EG]2 [Ec]3 [EG] | [FA]2 A2 [EG]2 [EG]2 | [Gc]2 [Gd]2 [Ge]2 [Gc]2 | %4
 [Fd]2 ([Ec][DB]) !fermata![Ec]2 [EG]2 | [EG]2 [EG]2 [Ec]3 [EG] | [FA]2 A2 [EG]2 [EG]2 | %7
 [Ac]2 ([GB][^FA]) [Gd]2 G2 | [Ac]2 [GB][^FA] !fermata!G2 G2 | G2 G2 G2 AB | c2 c2 c2 [Gc]2 | %11
 [Gc]2 [Gc]2 [Ff]2 [Ge]2 | [Ad]2 c2 [GB]2 G2 | [Gc]2 [E_B]2 [FA]3 [FA] | [Ad]2 [^Fc]2 [GB]2 G2 | %15
 [Ge]2 [Gc]2 [FA]2 (cd) | e2 z !fermata![Ec]2 x |] %17
V:2
 x2 | x8 | x2 (CD) x4 | x8 | x8 | x8 | x2 (CD) x4 | x6 G2 | x4 G2 G2 | G2 G2 G2 AB | c2 c2 c2 x2 | %11
 x8 | x2 (E^F) x G2 x | x8 | x6 G2 | x6 A2 | G3 (d2 F) |] %17
V:3
 [C,C]2 | [C,C]2 [C,C]2 [C,G,]3 [C,C] | [F,C]2 (A,B,) [C,C]2 [C,C]2 | [E,C]2 [G,B,]2 C2 [E,C]2 | %4
 [F,A,]2 G,2 !fermata![C,G,]2 [C,C]2 | [C,C]2 [C,C]2 [C,G,]3 [C,C] | [F,C]2 (A,B,) [C,C]2 [C,C]2 | %7
 [A,,E]2 D2 [B,,D]2 [E,B,]2 | [A,,E]2 (DC) !fermata![G,,B,]2 G,2 | G,2 G,2 G,2 A,B, | %10
 C2 C2 C2 [C,E]2 | [CE]2 [_B,E]2 [A,C]2 [G,C]2 | [F,F]2 [A,C]2 [G,D]2 [G,B,]2 | %13
 [E,C]2 [C,C]2 [F,C]3 [F,C] | [^F,D]2 [D,D]2 [G,D]2 [G,B,]2 | [C,C]2 [E,C]2 [F,C]2 [F,C]2 | %16
 [G,C]2 [G,,B,]2 !fermata![C,C]2 |] %17
V:4
 x2 | x8 | x2 F,2 x4 | x4 C2 x2 | x2 G,2 x4 | x8 | x2 F,2 x4 | x2 (D,C,) x4 | x2 D,2 x G,2 x | %9
 G,2 G,2 G,2 A,B, | C2 C2 C2 x2 | x8 | x8 | x8 | x8 | x8 | x6 |] %17

